!!!OTL: AUS DER JUGENDZEIT AUS DER JUGENDZEIT
!!!ARE: Europa, Mitteleuropa, Deutschland
!!!SCT: B0269
!!!YEM: Copyright 1995, estate of Helmut Schaffrath.
**kern
*ICvox
*Ivox
*M3/4
*k[b-e-a-]
*E-:
{8g
8a-
=1
8g
8f
4f
8b-
8cc
=2
8b-
8a-
4a-}
{12g
12a-
12b-
=3
8cc
8cc
4.ee-
8cc
=4
2b-}
{8ee-
8dd
=5
8dd
8g
4g
8cc
8b-
=6
8b-
8e-
4e-}
{8e-
8f
=7
8g
8f
4a-
4g
=8
4e-
4r}
{8e-
8f
=9
8g
8a-
4g
8cc
8a-
=10
12g
12b-
12a-
4g}
{8cc
8dd
=11
8ee-
8ee-
4.ff
8ee-
=12
2dd}
{8dd
8dd
=13
8ff
8ee-
4b-
8bn
8bn
=14
8dd
8cc
4f}
{4g
=15
2a-
8a-
8b-
=16
2g}
==
!!!AGN: Stimmungs - Lied, Sehnsucht, Jugend
!!!ONB: ESAC (Essen Associative Code) Database: BOEHME
!!!AMT: simple triple
!!!AIN: vox
!!!EED: Helmut Schaffrath
!!!EEV: 1.0
*-
